X:1
T:Olmutz, SM
T:Olmutz, SM
T:Lowell Mason, 1824
T:Public Domain Courtesy of the Cyber Hymnal™
C:Lowell Mason, 1824
Z:Public Domain
Z:Courtesy of the Cyber Hymnal™
%%score ( 1 2 ) ( 3 4 )
L:1/8
Q:1/4=130
M:3/2
K:A
V:1 treble 
V:2 treble 
V:3 bass 
V:4 bass 
V:1
 [CE]4 | [DF]2 [CE]2 [CA]4 [DB]4 | [CA]8 [CA]4 | [EG]2 [EA]2 [EF]4 [^DF]4 | E8 [CE]4 | %5
 [DF]2 [CE]2 [CA]4 [EG]4 | [CA]2 [DB]2 [CA]4 [EA]4 | [EG]2 [EA]2 [DF]4 [B,E]4 | [CE]8 |] %9
V:2
 x4 | x12 | x12 | x12 | E8 x4 | x12 | x12 | x12 | x8 |] %9
V:3
 [A,,A,]4 | [A,,A,]2 [A,,A,]2 [F,A,]4 [E,G,]4 | [A,,A,]8 [F,A,]4 | %3
 [E,B,]2 [A,,C]2 [B,,B,]4 [B,,B,]4 | [E,G,]8 [A,,A,]4 | [A,,A,]2 [A,,A,]2 [A,,A,]4 [E,B,]4 | %6
 [F,A,]2 [E,G,]2 A,4 [A,,C]4 | [E,B,]2 [C,A,]2 [D,A,]4 [E,G,]4 | [A,,A,]8 |] %9
V:4
 x4 | x12 | x12 | x12 | x12 | x12 | x4 A,4 x4 | x12 | x8 |] %9

